X:547
T:
S:Efter instrumentmakar Köhlers förespelning, Visby.
R:vals
O:Gotland, Visby
M:3/4
L:1/8
K:G
GGBBdd|bgdB G2|d2 B2 e2|(ed)(BG) D2|(d/e/d/c/) (Be)(dc)|
(Bd)(ga)(bc')|e'2 d'2 c'2|b2 a4::(dg)(fe)(dc)|(cB)(GB)(DB)|
(Ac)(FA)(DF)|(GB)(DG)(B,D)|(dg)(fe)(dc)|(cB)(GB)(DB)|(Ac)(FA)(DF)|G4 z2:|

